src/assets/icons/s3.svg

<svg xmlns="http://www.w3.org/2000/svg" width="428" height="512" viewBox="0 0 428 512"><defs><style>.cls-1{fill:#e25444}.cls-1,.cls-2,.cls-3{fill-rule:evenodd}.cls-2{fill:#7b1d13}.cls-3{fill:#58150d}</style></defs><path d="m378 99-83 158 83 158 34-19V118Z" class="cls-1"/><path d="m378 99-166 19-84.5 139L212 396l166 19z" class="cls-2"/><path d="m43 99-27 12v292l27 12 169-158Z" class="cls-3"/><path d="m42.637 98.667 169.587 47.111v226.666L42.637 415.111z" class="cls-1"/><path d="m212.313 170.667-72.008-11.556 72.008-81.778 71.83 81.778Z" class="cls-3"/><path d="m284.143 159.111-71.919 11.733-71.919-11.733V77.333m72.008 264.889-72.008 13.334 72.008 70.222 71.83-70.222Z" class="cls-3"/><path d="m212 16-72 38v105l72.224-20.333Zm.224 180.444-71.919 7.823v104.838l71.919 8.228zm0 176.889L140.305 355.3v103.063L212.224 496z" class="cls-2"/><path d="m284.143 355.3-71.919 18.038V496l71.919-37.637zm-71.919-158.856 71.919 7.823v104.838l-71.919 8.228zM212 16l72 38v105l-72-20z" class="cls-1"/></svg>

<svg xmlns="http://www.w3.org/2000/svg" width="428" height="512" viewBox="0 0 428 512">
  <defs>
    <style>
      .cls-1 {
        fill: #e25444;
      }

      .cls-1, .cls-2, .cls-3 {
        fill-rule: evenodd;
      }

      .cls-2 {
        fill: #7b1d13;
      }

      .cls-3 {
        fill: #58150d;
      }
    </style>
  </defs>
  <path class="cls-1" d="M378,99L295,257l83,158,34-19V118Z"/>
  <path class="cls-2" d="M378,99L212,118,127.5,257,212,396l166,19V99Z"/>
  <path class="cls-3" d="M43,99L16,111V403l27,12L212,257Z"/>
  <path class="cls-1" d="M42.637,98.667l169.587,47.111V372.444L42.637,415.111V98.667Z"/>
  <path class="cls-3" d="M212.313,170.667l-72.008-11.556,72.008-81.778,71.83,81.778Z"/>
  <path class="cls-3" d="M284.143,159.111l-71.919,11.733-71.919-11.733V77.333"/>
  <path class="cls-3" d="M212.313,342.222l-72.008,13.334,72.008,70.222,71.83-70.222Z"/>
  <path class="cls-2" d="M212,16L140,54V159l72.224-20.333Z"/>
  <path class="cls-2" d="M212.224,196.444l-71.919,7.823V309.105l71.919,8.228V196.444Z"/>
  <path class="cls-2" d="M212.224,373.333L140.305,355.3V458.363L212.224,496V373.333Z"/>
  <path class="cls-1" d="M284.143,355.3l-71.919,18.038V496l71.919-37.637V355.3Z"/>
  <path class="cls-1" d="M212.224,196.444l71.919,7.823V309.105l-71.919,8.228V196.444Z"/>
  <path class="cls-1" d="M212,16l72,38V159l-72-20V16Z"/>
</svg>
